<?xml version="1.0" encoding="UTF-8"?>
<map version="1.10" tiledversion="1.12.2" orientation="orthogonal" renderorder="right-down" width="30" height="30" tilewidth="16" tileheight="16" infinite="0" nextlayerid="2" nextobjectid="1">
 <tileset firstgid="1" name="All Tiles Free Ver." tilewidth="16" tileheight="16" tilecount="96" columns="12">
  <image source="../All Tiles Free Ver..png" width="192" height="128"/>
 </tileset>
 <layer id="1" name="Camada de Blocos 1" width="30" height="30">
  <data encoding="csv">
21,22,22,22,22,22,22,22,22,22,22,22,22,22,22,22,22,22,22,22,22,22,22,22,22,22,22,22,22,23,
33,34,34,34,34,34,34,34,34,34,34,34,34,34,34,34,34,34,34,34,34,34,34,34,34,34,34,34,34,35,
33,42,42,42,42,42,42,42,42,42,42,42,42,42,42,42,42,42,42,42,42,42,42,42,42,42,42,42,42,35,
33,46,46,46,46,46,46,46,46,46,46,17,42,42,42,42,42,42,42,42,42,42,42,42,42,42,42,42,42,35,
33,27,27,27,27,27,27,27,27,27,27,33,42,42,42,42,42,69,42,42,42,14,15,15,15,16,17,42,42,35,
33,27,27,27,27,27,27,27,27,27,27,33,42,42,42,42,42,69,42,42,42,26,27,27,27,27,29,42,42,35,
33,27,27,27,27,27,27,27,27,27,27,33,42,42,42,42,69,42,42,42,42,26,27,27,27,27,29,42,42,35,
33,27,27,27,27,27,27,27,27,27,27,33,42,42,42,69,69,42,42,42,42,26,27,27,27,27,29,42,42,35,
33,27,27,27,27,27,27,27,27,27,27,33,42,42,42,42,42,42,42,42,42,26,27,27,27,27,29,42,42,35,
33,27,27,27,27,27,27,27,27,27,27,33,42,42,69,42,42,42,14,15,16,47,27,27,27,27,29,42,42,35,
33,27,27,27,27,27,27,27,27,27,27,33,42,42,42,42,69,42,26,28,28,28,27,27,27,27,29,42,42,35,
33,27,27,27,27,27,27,27,27,27,27,33,42,69,42,42,42,42,26,28,28,28,27,27,27,27,29,42,42,35,
33,27,27,27,27,27,27,27,27,27,27,33,42,69,42,14,15,16,47,28,28,28,27,27,27,27,29,42,42,35,
33,27,27,27,27,27,27,27,27,27,27,33,42,42,42,26,28,28,28,28,28,28,27,27,27,27,29,42,42,35,
33,27,27,27,27,27,27,27,27,27,27,33,42,42,42,26,28,28,28,28,28,28,27,27,27,27,29,42,42,35,
33,27,27,27,27,27,27,27,27,27,27,33,69,69,42,26,28,28,28,28,28,28,27,27,27,27,29,42,42,35,
33,27,27,27,27,27,27,27,27,27,27,33,69,42,42,38,39,39,39,39,39,39,39,39,39,40,41,42,42,35,
33,27,27,27,27,27,27,27,27,27,27,33,42,69,42,66,66,66,66,66,66,66,66,66,66,66,66,42,42,35,
29,22,22,22,22,22,22,22,22,22,22,41,42,69,42,42,70,42,42,42,42,42,42,42,42,42,42,42,42,35,
33,66,66,66,66,66,66,66,66,66,66,66,42,70,70,42,42,42,42,42,42,42,42,42,42,42,42,42,42,35,
33,42,42,42,42,42,42,42,42,42,42,44,44,44,70,44,70,14,15,15,15,15,15,15,15,15,15,15,15,35,
33,42,42,42,42,42,42,42,42,42,42,14,46,46,46,46,46,47,28,28,28,28,28,28,28,28,28,28,28,35,
33,42,42,42,42,42,42,70,42,70,42,26,28,28,28,28,28,28,28,28,28,28,28,28,28,28,28,28,28,35,
33,42,42,42,42,42,42,42,70,42,42,38,40,40,40,40,40,40,40,40,40,40,40,40,40,40,40,40,40,35,
33,42,42,42,42,42,42,42,42,42,42,66,66,66,66,66,66,66,66,66,66,66,66,66,66,66,66,66,66,35,
33,42,42,42,42,42,42,70,42,42,70,42,42,42,42,42,70,42,42,42,42,42,42,42,42,42,42,42,42,35,
33,42,42,42,42,42,42,42,42,70,70,42,70,42,70,70,70,70,70,42,42,70,70,42,70,42,42,42,42,35,
33,42,42,42,42,42,42,14,16,16,16,16,16,16,16,16,16,16,16,16,16,16,16,16,16,16,16,16,16,35,
33,42,42,42,42,42,42,26,27,27,27,27,27,27,27,27,27,27,27,27,27,27,27,27,27,27,27,27,27,35,
45,46,46,46,46,46,46,46,46,46,46,46,46,46,46,46,46,46,46,46,46,46,46,46,46,46,46,46,46,47
</data>
 </layer>
</map>
